X: 23775
T: Little Donald's Wife
R: reel
M: 4/4
K: Aminor
B|:A/A/A (AG) ABcA|EAAG A2 AG|EAA(B {d}cB)ce|dcBA GABG:|
|:c2 (ce) dBGB|cdec A2 AB|cBcd e^fge|dcBA GABG:|

